X: 2
T: The Factory Smoke
R: hornpipe
M: 4/4
L: 1/8
K: Gmin
dc |: BAGF GABc | d2 GF Gbag | f2 dc BcdB | cBAG F2 dc || BAGF GABc | dg (3fga ~g3d | edcB cedc | 1 B2 G2 G2 dc :||2 B2 G2 G2 z2|||: bgdB gdBG | DGBd gbag | afcA fcAF | CFAc fcAc ||BAGF GABc | dg (3ggf g2 zd | edcB cedc |1 B2 G2 G2 z2 :||2 B2 G2 G2 dc ||


Tune 1985	Setting 26082

